img/svg/setting.svg

<?xml version="1.0" encoding="iso-8859-1"?>
<!-- Generator: Adobe Illustrator 18.1.1, SVG Export Plug-In . SVG Version: 6.00 Build 0)  -->
<svg version="1.1" id="Capa_1" xmlns="http://www.w3.org/2000/svg" xmlns:xlink="http://www.w3.org/1999/xlink" x="0px" y="0px"
	 viewBox="0 0 268.765 268.765" style="enable-background:new 0 0 268.765 268.765;" xml:space="preserve">
<g id="Settings">
	<g>
		<path style="fill-rule:evenodd;clip-rule:evenodd;" d="M267.92,119.461c-0.425-3.778-4.83-6.617-8.639-6.617
			c-12.315,0-23.243-7.231-27.826-18.414c-4.682-11.454-1.663-24.812,7.515-33.231c2.889-2.641,3.24-7.062,0.817-10.133
			c-6.303-8.004-13.467-15.234-21.289-21.5c-3.063-2.458-7.557-2.116-10.213,0.825c-8.01,8.871-22.398,12.168-33.516,7.529
			c-11.57-4.867-18.866-16.591-18.152-29.176c0.235-3.953-2.654-7.39-6.595-7.849c-10.038-1.161-20.164-1.197-30.232-0.08
			c-3.896,0.43-6.785,3.786-6.654,7.689c0.438,12.461-6.946,23.98-18.401,28.672c-10.985,4.487-25.272,1.218-33.266-7.574
			c-2.642-2.896-7.063-3.252-10.141-0.853c-8.054,6.319-15.379,13.555-21.74,21.493c-2.481,3.086-2.116,7.559,0.802,10.214
			c9.353,8.47,12.373,21.944,7.514,33.53c-4.639,11.046-16.109,18.165-29.24,18.165c-4.261-0.137-7.296,2.723-7.762,6.597
			c-1.182,10.096-1.196,20.383-0.058,30.561c0.422,3.794,4.961,6.608,8.812,6.608c11.702-0.299,22.937,6.946,27.65,18.415
			c4.698,11.454,1.678,24.804-7.514,33.23c-2.875,2.641-3.24,7.055-0.817,10.126c6.244,7.953,13.409,15.19,21.259,21.508
			c3.079,2.481,7.559,2.131,10.228-0.81c8.04-8.893,22.427-12.184,33.501-7.536c11.599,4.852,18.895,16.575,18.181,29.167
			c-0.233,3.955,2.67,7.398,6.595,7.85c5.135,0.599,10.301,0.898,15.481,0.898c4.917,0,9.835-0.27,14.752-0.817
			c3.897-0.43,6.784-3.786,6.653-7.696c-0.451-12.454,6.946-23.973,18.386-28.657c11.059-4.517,25.286-1.211,33.281,7.572
			c2.657,2.89,7.047,3.239,10.142,0.848c8.039-6.304,15.349-13.534,21.74-21.494c2.48-3.079,2.13-7.559-0.803-10.213
			c-9.353-8.47-12.388-21.946-7.529-33.524c4.568-10.899,15.612-18.217,27.491-18.217l1.662,0.043
			c3.853,0.313,7.398-2.655,7.865-6.588C269.044,139.917,269.058,129.639,267.92,119.461z M134.595,179.491
			c-24.718,0-44.824-20.106-44.824-44.824c0-24.717,20.106-44.824,44.824-44.824c24.717,0,44.823,20.107,44.823,44.824
			C179.418,159.385,159.312,179.491,134.595,179.491z"/>
	</g>
</g>
<g>
</g>
<g>
</g>
<g>
</g>
<g>
</g>
<g>
</g>
<g>
</g>
<g>
</g>
<g>
</g>
<g>
</g>
<g>
</g>
<g>
</g>
<g>
</g>
<g>
</g>
<g>
</g>
<g>
</g>
</svg>

<svg width="269" height="269" viewBox="0 0 269 269" fill="none" xmlns="http://www.w3.org/2000/svg">
<g clip-path="url(#clip0)">
<path fill-rule="evenodd" clip-rule="evenodd" d="M267.92 119.461C267.495 115.683 263.09 112.844 259.281 112.844C246.966 112.844 236.038 105.613 231.455 94.43C226.773 82.976 229.792 69.618 238.97 61.199C241.859 58.558 242.21 54.137 239.787 51.066C233.484 43.062 226.32 35.832 218.498 29.566C215.435 27.108 210.941 27.45 208.285 30.391C200.275 39.262 185.887 42.559 174.769 37.92C163.199 33.053 155.903 21.329 156.617 8.744C156.852 4.791 153.963 1.354 150.022 0.895002C139.984 -0.265998 129.858 -0.301998 119.79 0.815002C115.894 1.245 113.005 4.601 113.136 8.504C113.574 20.965 106.19 32.484 94.735 37.176C83.75 41.663 69.463 38.394 61.469 29.602C58.827 26.706 54.406 26.35 51.328 28.749C43.274 35.068 35.949 42.304 29.588 50.242C27.107 53.328 27.472 57.801 30.39 60.456C39.743 68.926 42.763 82.4 37.904 93.986C33.265 105.032 21.795 112.151 8.66399 112.151C4.40299 112.014 1.36799 114.874 0.901987 118.748C-0.280013 128.844 -0.294013 139.131 0.843987 149.309C1.26599 153.103 5.80499 155.917 9.65599 155.917C21.358 155.618 32.593 162.863 37.306 174.332C42.004 185.786 38.984 199.136 29.792 207.562C26.917 210.203 26.552 214.617 28.975 217.688C35.219 225.641 42.384 232.878 50.234 239.196C53.313 241.677 57.793 241.327 60.462 238.386C68.502 229.493 82.889 226.202 93.963 230.85C105.562 235.702 112.858 247.425 112.144 260.017C111.911 263.972 114.814 267.415 118.739 267.867C123.874 268.466 129.04 268.765 134.22 268.765C139.137 268.765 144.055 268.495 148.972 267.948C152.869 267.518 155.756 264.162 155.625 260.252C155.174 247.798 162.571 236.279 174.011 231.595C185.07 227.078 199.297 230.384 207.292 239.167C209.949 242.057 214.339 242.406 217.434 240.015C225.473 233.711 232.783 226.481 239.174 218.521C241.654 215.442 241.304 210.962 238.371 208.308C229.018 199.838 225.983 186.362 230.842 174.784C235.41 163.885 246.454 156.567 258.333 156.567L259.995 156.61C263.848 156.923 267.393 153.955 267.86 150.022C269.044 139.917 269.058 129.639 267.92 119.461ZM134.595 179.491C109.877 179.491 89.771 159.385 89.771 134.667C89.771 109.95 109.877 89.843 134.595 89.843C159.312 89.843 179.418 109.95 179.418 134.667C179.418 159.385 159.312 179.491 134.595 179.491Z" fill="white"/>
</g>
<defs>
<clipPath id="clip0">
<rect width="268.765" height="268.765" fill="white"/>
</clipPath>
</defs>
</svg>
